X:1
T:High in the Heavens, LM
T:High in the Heavens, LM
T:Mitch Cervinka, 2000
T:Public Domain Courtesy of the Cyber Hymnal™
C:Mitch Cervinka, 2000
Z:Public Domain
Z:Courtesy of the Cyber Hymnal™
%%score ( 1 2 ) ( 3 4 )
L:1/8
Q:1/4=110
M:2/4
K:C
V:1 treble 
V:2 treble 
V:3 bass 
V:4 bass 
V:1
"^C" [EG]2 cd |"^Am" (c [CG]2) E |"^F" F2 F2 |"^G" [B,G]4 |"^C" [Ec]2 Bc |"^Em" [DG]2 [CE]2 | %6
"^Dm" (F>A)"^Am" (cE)"^G" | [B,D]3 E |"^Am" [A,C]2 C2"^G" | [B,G-]2 GG | %10
"^F" [FA]2"^Em" [EB]2"^Am" | [Cc]2"^D" (BA) |"^C" [CG]2 C2"^F" | (F>GF)E |"^G7" D3 C | %15
"^C" [G,C]4 |] x4 |] %17
V:2
 x2 C2 | E2 x2 | x4 | x4 | x2 C2 | x4 | x4 | x4 | x4 | x2 D2 | x4 | x2 F2 | x4 | x4 | x4 | x4 |] %16
 x4 |] %17
V:3
 G,2 E,2 | E,2 [A,,C,]2 | C,2 A,,2 | (D,F,E,D,) | G,2 E,2 | B,,2 x2 | A,,2 x2 | [F,,C,]2 [A,,C,]2 | %8
 (D,2 B,,2) | E,2 C,2 | D,2 B,,2 | [F,,C,]2 [E,,G,]2 | [A,,E,]2 [D,,F,]2 | E,2 G,2 | A,,2 C,2 | %15
 B,,2 F,2 |] [C,,E,]4 |] %17
V:4
 C,4 | A,,4 | F,,4 | G,,4 | C,4 | E,,4 | x4 | x4 | G,,4 | A,,4 | G,,4 | x4 | x4 | C,4 | F,,4 | %15
 G,,4 |] x4 |] %17

